lib/svgs/team-calculator.svg

<?xml version="1.0" encoding="UTF-8"?>
<svg width="16px" height="16px" viewBox="0 0 16 16" version="1.1" xmlns="http://www.w3.org/2000/svg" xmlns:xlink="http://www.w3.org/1999/xlink">
    <!-- Generator: sketchtool 51.3 (57544) - http://www.bohemiancoding.com/sketch -->
    <title>team/team-calculator</title>
    <desc>Created with sketchtool.</desc>
    <defs></defs>
    <g id="Icons" stroke="none" stroke-width="1" fill="none" fill-rule="evenodd">
        <g id="Web" transform="translate(-195.000000, -2394.000000)" fill="#000000">
            <g id="team/team-calculator" transform="translate(195.000000, 2394.000000)">
                <path d="M15.3333333,0 L0.666666667,0 C0.266666667,0 0,0.266666667 0,0.666666667 L0,15.3333333 C0,15.7333333 0.266666667,16 0.666666667,16 L15.3333333,16 C15.7333333,16 16,15.7333333 16,15.3333333 L16,0.666666667 C16,0.266666667 15.7333333,0 15.3333333,0 L15.3333333,0 L15.3333333,0 L15.3333333,0 M6.46666667,12.2 C6.73333333,12.4666667 6.73333333,12.8666667 6.46666667,13.1333333 C6.33333333,13.2666667 6.2,13.3333333 6,13.3333333 C5.8,13.3333333 5.66666667,13.2666667 5.53333333,13.1333333 L4.66666667,12.2666667 L3.8,13.1333333 C3.66666667,13.2666667 3.53333333,13.3333333 3.33333333,13.3333333 C3.13333333,13.3333333 3,13.2666667 2.86666667,13.1333333 C2.6,12.8666667 2.6,12.4666667 2.86666667,12.2 L3.73333333,11.3333333 L2.86666667,10.4666667 C2.6,10.2 2.6,9.8 2.86666667,9.53333333 C3.13333333,9.26666667 3.53333333,9.26666667 3.8,9.53333333 L4.66666667,10.4 L5.53333333,9.53333333 C5.8,9.26666667 6.2,9.26666667 6.46666667,9.53333333 C6.73333333,9.8 6.73333333,10.2 6.46666667,10.4666667 L5.6,11.3333333 L6.46666667,12.2 L6.46666667,12.2 L6.46666667,12.2 L6.46666667,12.2 M12.6666667,13.6 L10,13.6 C9.6,13.6 9.33333333,13.28 9.33333333,12.8 C9.33333333,12.32 9.6,12 10,12 L12.6666667,12 C13.0666667,12 13.3333333,12.32 13.3333333,12.8 C13.3333333,13.28 13.0666667,13.6 12.6666667,13.6 L12.6666667,13.6 L12.6666667,13.6 L12.6666667,13.6 M12.6666667,10.9333333 L10,10.9333333 C9.6,10.9333333 9.33333333,10.6133333 9.33333333,10.1333333 C9.33333333,9.65333333 9.6,9.33333333 10,9.33333333 L12.6666667,9.33333333 C13.0666667,9.33333333 13.3333333,9.65333333 13.3333333,10.1333333 C13.3333333,10.6133333 13.0666667,10.9333333 12.6666667,10.9333333 L12.6666667,10.9333333 L12.6666667,10.9333333 L12.6666667,10.9333333 M6,5.33333333 L5.33333333,5.33333333 L5.33333333,6 C5.33333333,6.4 5.06666667,6.66666667 4.66666667,6.66666667 C4.26666667,6.66666667 4,6.4 4,6 L4,5.33333333 L3.33333333,5.33333333 C2.93333333,5.33333333 2.66666667,5.06666667 2.66666667,4.66666667 C2.66666667,4.26666667 2.93333333,4 3.33333333,4 L4,4 L4,3.33333333 C4,2.93333333 4.26666667,2.66666667 4.66666667,2.66666667 C5.06666667,2.66666667 5.33333333,2.93333333 5.33333333,3.33333333 L5.33333333,4 L6,4 C6.4,4 6.66666667,4.26666667 6.66666667,4.66666667 C6.66666667,5.06666667 6.4,5.33333333 6,5.33333333 L6,5.33333333 L6,5.33333333 L6,5.33333333 M12.6666667,5.6 L10,5.6 C9.6,5.6 9.33333333,5.28 9.33333333,4.8 C9.33333333,4.32 9.6,4 10,4 L12.6666667,4 C13.0666667,4 13.3333333,4.32 13.3333333,4.8 C13.3333333,5.28 13.0666667,5.6 12.6666667,5.6 L12.6666667,5.6 L12.6666667,5.6 L12.6666667,5.6" id="Shape"></path>
            </g>
        </g>
    </g>
</svg>

<svg xmlns="http://www.w3.org/2000/svg" viewBox="0 0 16 16">
    <path d="M15.333 0H.667C.267 0 0 .267 0 .667v14.666c0 .4.267.667.667.667h14.666c.4 0 .667-.267.667-.667V.667c0-.4-.267-.667-.667-.667M6.467 12.2a.644.644 0 0 1 0 .933.605.605 0 0 1-.467.2.605.605 0 0 1-.467-.2l-.866-.866-.867.866a.605.605 0 0 1-.467.2.605.605 0 0 1-.466-.2.644.644 0 0 1 0-.933l.866-.867-.866-.866a.644.644 0 0 1 0-.934.644.644 0 0 1 .933 0l.867.867.866-.867a.644.644 0 0 1 .934 0 .644.644 0 0 1 0 .934l-.867.866.867.867m6.2 1.4H10c-.4 0-.667-.32-.667-.8 0-.48.267-.8.667-.8h2.667c.4 0 .666.32.666.8 0 .48-.266.8-.666.8m0-2.667H10c-.4 0-.667-.32-.667-.8 0-.48.267-.8.667-.8h2.667c.4 0 .666.32.666.8 0 .48-.266.8-.666.8M6 5.333h-.667V6c0 .4-.266.667-.666.667S4 6.4 4 6v-.667h-.667c-.4 0-.666-.266-.666-.666S2.933 4 3.333 4H4v-.667c0-.4.267-.666.667-.666s.666.266.666.666V4H6c.4 0 .667.267.667.667S6.4 5.333 6 5.333m6.667.267H10c-.4 0-.667-.32-.667-.8 0-.48.267-.8.667-.8h2.667c.4 0 .666.32.666.8 0 .48-.266.8-.666.8"/>
</svg>
